public/svg/facebook.svg

<svg height="28" viewBox="0 0 16 28" width="16" xmlns="http://www.w3.org/2000/svg" xmlns:xlink="http://www.w3.org/1999/xlink"><linearGradient id="a" x1="50%" x2="50%" y1="0%" y2="100%"><stop offset="0" stop-color="#4ebbed"/><stop offset="1" stop-color="#5c6ddd"/></linearGradient><path d="m9.88294757 28h-4.51434259c-.75403928 0-1.36742208-.6092529-1.36742208-1.3582154v-10.1137695h-2.63376077c-.75403933 0-1.36742213-.6094665-1.36742213-1.3582153v-4.3337708c0-.7489623.6133828-1.35821527 1.36742213-1.35821527h2.63376077v-2.17019654c0-2.15182494.68026993-3.98257448 1.96704038-5.29400638 1.29257733-1.31741329 3.09895959-2.01361081 5.22386212-2.01361081l3.4428583.00555417c.7527489.00128177 1.3650563.6105347 1.3650563 1.35821536v4.02380371c0 .74896243-.6131677 1.35821531-1.3669919 1.35821531l-2.3180364.00085454c-.7069388 0-.8869533.14077755-.925451.18392943-.063446.07156368-.1389359.27386472-.1389359.832489v1.71453861h3.2082157c.2415248 0 .4755222.05917357.6766137.17068477.4337984.24075319.7034976.6959839.7034976 1.1879578l-.0017206 4.3337707c0 .7485352-.6133828 1.3577881-1.3674221 1.3577881h-3.2191843v10.1139831c0 .7489625-.613598 1.3582154-1.36763723 1.3582154zm-4.22915828-1.6414795h3.94397396v-10.5653687c0-.5000915.40971055-.9068298.91297685-.9068298h3.6738447l.0015055-3.7670288h-3.6755652c-.5032665 0-.91276185-.4067383-.91276185-.9068298v-2.44940188c0-.64129641.06559673-1.37060547.55294785-1.91876218.5888647-.66265871 1.5168965-.73913579 2.1638304-.73913579l2.0328522-.00085444v-3.45770266l-3.1565987-.00512696c-3.41489907 0-5.53700571 2.17126465-5.53700571 5.6661377v2.90484621c0 .4998779-.40949539.9068298-.91276178.9068298h-3.08842111v3.7670288h3.08842111c.50326639 0 .91276178.4067383.91276178.9068298z" fill="url(#a)"/></svg>

<?xml version="1.0" encoding="UTF-8"?>
<svg width="16px" height="28px" viewBox="0 0 16 28" version="1.1" xmlns="http://www.w3.org/2000/svg" xmlns:xlink="http://www.w3.org/1999/xlink">
    <title>facebook</title>
    <defs>
        <linearGradient x1="50%" y1="0%" x2="50%" y2="100%" id="linearGradient-1">
            <stop stop-color="#4EBBED" offset="0%"></stop>
            <stop stop-color="#5C6DDD" offset="100%"></stop>
        </linearGradient>
    </defs>
    <g id="Page-1" stroke="none" stroke-width="1" fill="none" fill-rule="evenodd">
        <g id="workers-personnal-desktop" transform="translate(-571.000000, -884.000000)" fill="url(#linearGradient-1)" fill-rule="nonzero">
            <g id="facebook" transform="translate(571.000000, 884.000000)">
                <path d="M9.88294757,28 L5.36860498,28 C4.6145657,28 4.0011829,27.3907471 4.0011829,26.6417846 L4.0011829,16.5280151 L1.36742213,16.5280151 C0.613382801,16.5280151 0,15.9185486 0,15.1697998 L0,10.836029 C0,10.0870667 0.613382801,9.47781373 1.36742213,9.47781373 L4.0011829,9.47781373 L4.0011829,7.30761719 C4.0011829,5.15579225 4.68145283,3.32504271 5.96822328,2.01361081 C7.26080061,0.696197523 9.06718287,0 11.1920854,0 L14.6349437,0.00555417187 C15.3876926,0.0068359375 16,0.616088867 16,1.36376953 L16,5.38757324 C16,6.13653567 15.3868323,6.74578855 14.6330081,6.74578855 L12.3149717,6.74664309 C11.6080329,6.74664309 11.4280184,6.88742064 11.3895207,6.93057252 C11.3260747,7.0021362 11.2505848,7.20443724 11.2505848,7.76306152 L11.2505848,9.47760013 L14.4588005,9.47760013 C14.7003253,9.47760013 14.9343227,9.5367737 15.1354142,9.6482849 C15.5692126,9.88903809 15.8389118,10.3442688 15.8389118,10.8362427 L15.8371912,15.1700134 C15.8371912,15.9185486 15.2238084,16.5278015 14.4697691,16.5278015 L11.2505848,16.5278015 L11.2505848,26.6417846 C11.2505848,27.3907471 10.6369868,28 9.88294757,28 L9.88294757,28 Z M5.65378929,26.3585205 L9.59776325,26.3585205 L9.59776325,15.7931518 C9.59776325,15.2930603 10.0074738,14.886322 10.5107401,14.886322 L14.1845848,14.886322 L14.1860903,11.1192932 L10.5105251,11.1192932 C10.0072586,11.1192932 9.59776325,10.7125549 9.59776325,10.2124634 L9.59776325,7.76306152 C9.59776325,7.12176511 9.66335998,6.39245605 10.1507111,5.84429934 C10.7395758,5.18164063 11.6676076,5.10516355 12.3145415,5.10516355 L14.3473937,5.10430911 L14.3473937,1.64660645 L11.190795,1.64147949 C7.77589593,1.64147949 5.65378929,3.81274414 5.65378929,7.30761719 L5.65378929,10.2124634 C5.65378929,10.7123413 5.2442939,11.1192932 4.74102751,11.1192932 L1.6526064,11.1192932 L1.6526064,14.886322 L4.74102751,14.886322 C5.2442939,14.886322 5.65378929,15.2930603 5.65378929,15.7931518 L5.65378929,26.3585205 Z" id="Shape"></path>
            </g>
        </g>
    </g>
</svg>
